docs/.gitbook/assets/icon-moonrise-16@dark.svg

<svg width="32" height="32" viewBox="0 0 16 16" fill="none" xmlns="http://www.w3.org/2000/svg">
<rect x="0" y="0" width="16" height="16" fill="#181c1f"/>
<path fill-rule="evenodd" clip-rule="evenodd" d="M8.50261 2.19748C8.67271 1.96692 8.6966 1.65959 8.56416 1.40551C8.43171 1.15144 8.16609 0.995028 7.87966 1.00245C5.17448 1.07255 3 3.28154 3 6.00074C3 6.40952 3.04933 6.80782 3.14272 7.18962C3.27081 7.71328 3.4814 8.20436 3.75961 8.64828C3.97957 8.99926 4.44242 9.10548 4.7934 8.88551C5.14438 8.66555 5.25059 8.2027 5.03063 7.85172C4.83593 7.54105 4.68905 7.19822 4.59977 6.83322C4.53468 6.56715 4.5 6.28849 4.5 6.00074C4.5 4.56104 5.37299 3.32251 6.62178 2.78552C6.56243 3.05478 6.53113 3.33421 6.53113 3.62074C6.53113 5.84533 8.39581 7.60074 10.6357 7.60074C10.8105 7.60074 10.983 7.59011 11.1524 7.56944C11.1036 7.66615 11.0505 7.76033 10.9932 7.85172C10.7732 8.2027 10.8794 8.66555 11.2304 8.88551C11.5814 9.10548 12.0443 8.99926 12.2642 8.64828C12.5424 8.20436 12.753 7.71328 12.8811 7.18962C12.9335 6.97531 12.9721 6.75572 12.9958 6.53192C13.0251 6.25624 12.8998 5.98692 12.6702 5.8316C12.4406 5.67628 12.144 5.6603 11.899 5.79004C11.5265 5.98733 11.0965 6.10074 10.6357 6.10074C9.17023 6.10074 8.03113 4.96391 8.03113 3.62074C8.03113 3.09216 8.20408 2.60208 8.50261 2.19748ZM1.75 10.5C1.33579 10.5 1 10.8358 1 11.25C1 11.6642 1.33579 12 1.75 12H14.25C14.6642 12 15 11.6642 15 11.25C15 10.8358 14.6642 10.5 14.25 10.5H1.75ZM3.75 13.5C3.33579 13.5 3 13.8358 3 14.25C3 14.6642 3.33579 15 3.75 15H12.25C12.6642 15 13 14.6642 13 14.25C13 13.8358 12.6642 13.5 12.25 13.5H3.75Z" fill="#fff"/>
</svg>

<svg xmlns="http://www.w3.org/2000/svg" width="32" height="32" fill="none" viewBox="0 0 16 16"><path fill="#181c1f" d="M0 0h16v16H0z"/><path fill="#fff" fill-rule="evenodd" d="M8.503 2.197a.75.75 0 0 0-.623-1.195A5.006 5.006 0 0 0 3.143 7.19a5 5 0 0 0 .617 1.458.75.75 0 1 0 1.27-.796A3.47 3.47 0 0 1 4.5 6a3.5 3.5 0 0 1 2.122-3.215q-.09.404-.09.835c0 2.224 1.864 3.98 4.104 3.98q.263 0 .516-.032-.072.145-.159.283a.75.75 0 1 0 1.271.796 5 5 0 0 0 .732-2.116.75.75 0 0 0-1.097-.742c-.372.197-.802.31-1.263.31C9.17 6.1 8.03 4.965 8.03 3.62c0-.528.173-1.018.472-1.423M1.75 10.5a.75.75 0 0 0 0 1.5h12.5a.75.75 0 0 0 0-1.5zm2 3a.75.75 0 0 0 0 1.5h8.5a.75.75 0 0 0 0-1.5z" clip-rule="evenodd"/></svg>
